client/src/assets/vectors/checked.svg

<svg enable-background="new 0 0 330 330" viewBox="0 0 330 330" xmlns="http://www.w3.org/2000/svg"><path d="m315 0h-300c-8.284 0-15 6.716-15 15v300c0 8.284 6.716 15 15 15h300c8.284 0 15-6.716 15-15v-300c0-8.284-6.716-15-15-15zm-15 300h-270v-270h270z"/><path d="m108.773 243.417c2.813 2.813 6.629 4.393 10.607 4.393s7.794-1.581 10.606-4.393l135.62-135.621c5.858-5.858 5.858-15.355 0-21.213-5.857-5.858-15.355-5.858-21.213 0l-125.013 125.014-33.773-33.774c-5.858-5.858-15.355-5.857-21.213 0-5.858 5.858-5.858 15.355 0 21.213z"/></svg>

<?xml version="1.0" encoding="iso-8859-1"?>
<!-- Generator: Adobe Illustrator 19.0.0, SVG Export Plug-In . SVG Version: 6.00 Build 0)  -->
<svg version="1.1" id="Layer_1" xmlns="http://www.w3.org/2000/svg" xmlns:xlink="http://www.w3.org/1999/xlink" x="0px" y="0px"
	 viewBox="0 0 330 330" style="enable-background:new 0 0 330 330;" xml:space="preserve">
<g id="XMLID_93_">
	<path id="XMLID_102_" d="M315,0H15C6.716,0,0,6.716,0,15v300c0,8.284,6.716,15,15,15h300c8.284,0,15-6.716,15-15V15
		C330,6.716,323.284,0,315,0z M300,300H30V30h270V300z"/>
	<path id="XMLID_105_" d="M108.773,243.417c2.813,2.813,6.629,4.393,10.607,4.393c3.978,0,7.794-1.581,10.606-4.393l135.62-135.621
		c5.858-5.858,5.858-15.355,0-21.213c-5.857-5.858-15.355-5.858-21.213,0L119.38,211.597l-33.773-33.774
		c-5.858-5.858-15.355-5.857-21.213,0c-5.858,5.858-5.858,15.355,0,21.213L108.773,243.417z"/>
</g>
<g>
</g>
<g>
</g>
<g>
</g>
<g>
</g>
<g>
</g>
<g>
</g>
<g>
</g>
<g>
</g>
<g>
</g>
<g>
</g>
<g>
</g>
<g>
</g>
<g>
</g>
<g>
</g>
<g>
</g>
</svg>
